X:1
T:34
T:Hugo Distler
T:Trad., Süddeutschland (?) 17the century
T:*)
T:34.  Come All and Join Me in This Plan Wohlauf mit mir auf diesen Plan All Saints Day
T:Bärenreiter
T:Bärenreiter
T:Bärenreiter
T:Bärenreiter
T:Bärenreiter
T:Bärenreiter
C:Hugo Distler
Z:Trad., Süddeutschland (?)
Z:17the century
Z:Bärenreiter
%%score [ 1 2 3 ]
L:1/8
Q:1/4=90
M:6/4
K:F
V:1 treble nm="Sop. 1"
V:2 treble nm="Sop. 2"
V:3 treble nm="Alto"
V:1
 F2 | A4 A2 A4 c2 | G4 A2 !breath!F4 F2 | E4 F2 G4 A2 | (D3 E) D2 !breath!C4 C2 | F4 G2 A4 G2 | %6
w: 1. Come|all and join me|in this plan, a|dance I've planned as|best _ I can. You|all will join me|
w: 3. And|now, O king, let's|hear you say, The|bells of sad- ness|now _ do play! Your|cour- * tiers a-|
w: 5. Now|let the fol- low-|ing be clear: Take|care! For Death does|not _ des- pair. No|per- son's part will|
 A4 B2 c4 c2 | z4 c2 d4 c2 | B4 A2 A2 G4 |"^(to vs. 2, 4, or 6)" F2 F2 z2 z4 ||[M:6/4] F2 | %11
w: in this mad- ness|though it should|lead to joy or|sad- ness.|2. Come|
w: side in er- mine|dance as you|will, be't Welsh or|Ger- man.||
w: he be spar- ing,|all flesh must|dance; there's no de-|murr- ing.||
 A2 A2 (A4 c3 B) | A2 G2 G2 !breath!F4 G2 | E4 F4 G2 A2 | (D3 E) D2 !breath!C4 C2 | %15
w: on you fidd- * *|lers, play a tune; I'll|make the king a|gar- * land soon. Your|
w: ||||
w: ||||
 F4 G2 A2 G2 G2 | c4 c2 !breath!c2 c2 (c2- | cd) c2 B2 A2 G4 | A2 F2 F4 z2"^D.C. (Verse 3)" || %19
w: ma- jes- ty will want|to join in, as we|_ _ be- gin a gal-|liard splen- did.|
w: ||||
w: ||||
 (FG) | A4 A2 A4 c2 | (G3 A) G2 !breath!F4 G2 | E4 F2 G4 A2 | D4 E2 !breath!C4 C2 | F4 G2 A4 G2 | %25
w: 4. You _|com- mon- ers and|ci- * ty- folk and|you young peo- ple,|go for broke. There|is no ar- mor|
w: ||||||
w: ||||||
 A2 B4 !breath!c4 c2 | (c2 d2) c2 B4 A2 | A2 G2 A4"^D. C. (Verse 5)" z2 || z2 | z4 d2 e3 e e2 | %30
w: can re- sist; all|must _ join in, I|do in- sist.||6. All flesh, make rea-|
w: |||||
w: |||||
 g2 (d3 c) d2 !breath!c4 | c4 =B2 c2 d2 e2 |[M:5/4] A4 =B2 G4 |[M:4/4] z2 G2 cc c2- | %34
w: dy for _ the dance:|and death will free your|souls, per- chance.|His bit- ter- ness|
w: ||||
w: ||||
[M:6/4] cc d4 A2 e2 !breath!e2 | f2 f2 g2 (e2 f3) e | d2 c2 c4 c4 |] %37
w: _ will quick- ly less- en,|for Christ from death _ has|now a- ris- en.|
w: |||
w: |||
V:2
 F2 | E4 G2 D4 C2 | (E3 F) E2 !breath!D4 D2 | ^C4 D2 E4 D2 | =C4 =B,2 C4 z2 | z4 C2 (F3 E) D2 | %6
w: 1. Come|all and join me|in _ this plan, a|dance I've planned as|best I can.|You all _ will|
w: 3. And|now, O king, let's|hear _ you say, The|bells of sad- ness|now do play!|Your cour- * *|
w: 5. Now|let the fol- low-|ing _ be clear: Take|care! For Death does|not des- pair.|No per- * son's|
 E2 A6 G2 A2 | F2 !breath!F2 G2 (A2 F3) E | (D2 E2) F2 F4 E2 |"^(to vs. 2, 4, or 6)" F2 F2 z2 z4 || %10
w: join me in this|mad- ness though it _ should|lead _ to joy or|sad- ness.|
w: tiers a- side in|er- mine dance as _ you|will, _ be't Welsh or|Ger- man.|
w: part will he be|spar- ing, all flesh _ must|dance; _ there's no de-|murr- ing.|
[M:6/4] z2 | z12 | z12 | z12 | z12 | z12 | z12 | z12 | z10 || z2 | z4 (CD) E4 D2 | %21
w: ||||||||||4. You _ com- mon-|
w: |||||||||||
w: |||||||||||
 (E3 F) G2 (D2 E2) D2 | !breath!C4 D2 =B,4 C2 | D3 C =B,B, A,6 | z4 A,2 C2 D2 _E2- | %25
w: ers _ and ci- * ty-|folk and you young|peo- ple, go for broke.|There is no ar-|
w: ||||
w: ||||
 !breath!E2 D3 D F2 F2 _ED | !breath!G4 A4 A2 DD | GF F=E D4 z2 || F2 | A4 A2 A2 c2 (G2- | %30
w: * mor, no ar- mor can re-|sist; all, all must join|in, I do in- sist.|6. All|flesh, make rea- dy for|
w: |||||
w: |||||
 GF) G2 !breath!F4 G4 | F2 E2 G4 A2 (G2- |[M:5/4] GFEF) D2 !breath!C2 C2 |[M:4/4] F2 G2 A2 G2 | %34
w: _ _ the dance: and|death will free your souls,|_ _ _ _ per- chance. His|bit- ter- ness will|
w: ||||
w: ||||
[M:6/4] A4 B2 c2 !breath!c2 c2 | (d3 c) B2 c2 (BA) G2- | G2 G2 A4 A4 |] %37
w: quick- ly less- en, for|Christ _ from death has _ now|_ a- ris- en.|
w: |||
w: |||
V:3
 z2 | z6 z4 A,2 | C2 D2 C2 B,2 A,2 G,2 | !breath!A,2 A2 D2 C2 B,2 A,2 | G,4 G,2 C4 z2 | %5
w: |1. Come|all and join me in this|plan, a dance I've planned as|best I can.|
w: |3. And|now, O king, let's hear you|say, The bells of sad- ness|now do play!|
w: |5. Now|let the fol- low- ing be|clear: Take care! For Death does|not des- pair.|
 z4 E2 (D4 D2) | C4 B,2 A,4 A,2 | D2 !breath!D2 E2 F4 F2 | B,4 D2 B,2 C4 | %9
w: You all will|join me in this|mad- ness though it should|lead to joy or|
w: Your cour- *|tiers a- side in|er- mine dance as you|will, be't Welsh or|
w: No per- son's|part will he be|spar- ing, all flesh must|dance; there's no de-|
"^(to vs. 2, 4, or 6)" F2 F2 z2 z4 ||[M:6/4] z2 | z12 | z12 | z12 | z12 | z12 | z12 | z12 | z10 || %19
w: sad- ness.||||||||||
w: Ger- man.||||||||||
w: murr- ing.||||||||||
 z2 | z12 | z12 | z12 | z12 | z12 | z12 | z12 | z10 || D2 | E4 F2 (E3 D) C2 | %30
w: |||||||||6. All|flesh, make rea- * dy|
w: |||||||||||
w: |||||||||||
 (B,3 C) (DE) !breath!F4 E2 | A4 G2 F4 E2 |[M:5/4] (D3 C) D2 E4 |[M:4/4] z2 E2 FF E2- | %34
w: for _ the _ dance: and|death will free your|souls, _ per- chance.|His bit- ter- ness|
w: ||||
w: ||||
[M:6/4] EE G4 F2 A2 !breath!E2 | D2 D2 G2 C2 F2 F2- | F2 E2 F4 F4 |] %37
w: _ will quick- ly less- en,|for Christ from death has now|_ a- ris- en.|
w: |||
w: |||

